inst/assets/svg/wi-time-7.svg

<?xml version="1.0" encoding="UTF-8"?>
<svg xmlns="http://www.w3.org/2000/svg" xmlns:xlink="http://www.w3.org/1999/xlink" width="30pt" height="30pt" viewBox="0 0 30 30" version="1.1">
<g id="surface986">
<path style=" stroke:none;fill-rule:nonzero;fill:rgb(0%,0%,0%);fill-opacity:1;" d="M 3.738281 14.46875 C 3.738281 12.429688 4.25 10.539063 5.261719 8.808594 C 6.269531 7.078125 7.640625 5.710938 9.371094 4.699219 C 11.101563 3.691406 12.980469 3.191406 15.011719 3.191406 C 16.53125 3.191406 17.988281 3.488281 19.378906 4.078125 C 20.769531 4.671875 21.960938 5.480469 22.96875 6.480469 C 23.980469 7.480469 24.78125 8.679688 25.371094 10.078125 C 25.960938 11.480469 26.261719 12.929688 26.261719 14.46875 C 26.261719 15.988281 25.960938 17.449219 25.371094 18.839844 C 24.78125 20.230469 23.96875 21.429688 22.96875 22.429688 C 21.96875 23.429688 20.769531 24.230469 19.378906 24.820313 C 17.988281 25.410156 16.539063 25.710938 15.011719 25.710938 C 13.480469 25.710938 12.011719 25.410156 10.621094 24.820313 C 9.230469 24.230469 8.03125 23.421875 7.019531 22.421875 C 6.011719 21.421875 5.21875 20.21875 4.621094 18.839844 C 4.019531 17.460938 3.738281 16 3.738281 14.46875 Z M 6.21875 14.46875 C 6.21875 16.839844 7.078125 18.898438 8.808594 20.648438 C 10.539063 22.378906 12.601563 23.238281 15.011719 23.238281 C 16.589844 23.238281 18.058594 22.851563 19.398438 22.058594 C 20.738281 21.269531 21.820313 20.210938 22.609375 18.859375 C 23.398438 17.511719 23.800781 16.050781 23.800781 14.46875 C 23.800781 12.890625 23.398438 11.421875 22.609375 10.070313 C 21.820313 8.71875 20.75 7.648438 19.398438 6.859375 C 18.050781 6.070313 16.589844 5.679688 15.011719 5.679688 C 13.429688 5.679688 11.960938 6.070313 10.621094 6.859375 C 9.28125 7.648438 8.199219 8.71875 7.398438 10.070313 C 6.601563 11.421875 6.21875 12.890625 6.21875 14.46875 Z M 11.890625 18.710938 C 11.828125 18.488281 11.851563 18.269531 11.96875 18.058594 L 14.140625 14.21875 L 14.140625 7.808594 C 14.140625 7.578125 14.21875 7.378906 14.378906 7.21875 C 14.539063 7.058594 14.738281 6.980469 14.96875 6.980469 C 15.199219 6.980469 15.398438 7.058594 15.558594 7.21875 C 15.71875 7.378906 15.800781 7.578125 15.800781 7.808594 L 15.800781 14.480469 C 15.800781 14.679688 15.738281 14.851563 15.609375 15.011719 L 13.429688 18.910156 C 13.269531 19.179688 13.019531 19.320313 12.679688 19.320313 C 12.519531 19.320313 12.390625 19.289063 12.28125 19.230469 C 12.089844 19.101563 11.960938 18.929688 11.890625 18.710938 Z M 11.890625 18.710938 "/>
</g>
</svg>

<?xml version="1.0" encoding="utf-8"?>
<!-- Generator: Adobe Illustrator 22.0.1, SVG Export Plug-In . SVG Version: 6.00 Build 0)  -->
<svg version="1.1" id="Layer_1" xmlns="http://www.w3.org/2000/svg" xmlns:xlink="http://www.w3.org/1999/xlink" x="0px" y="0px"
	 viewBox="0 0 30 30" style="enable-background:new 0 0 30 30;" xml:space="preserve">
<path d="M3.74,14.47c0-2.04,0.51-3.93,1.52-5.66s2.38-3.1,4.11-4.11s3.61-1.51,5.64-1.51c1.52,0,2.98,0.3,4.37,0.89
	s2.58,1.4,3.59,2.4s1.81,2.2,2.4,3.6s0.89,2.85,0.89,4.39c0,1.52-0.3,2.98-0.89,4.37s-1.4,2.59-2.4,3.59s-2.2,1.8-3.59,2.39
	s-2.84,0.89-4.37,0.89c-1.53,0-3-0.3-4.39-0.89s-2.59-1.4-3.6-2.4s-1.8-2.2-2.4-3.58S3.74,16,3.74,14.47z M6.22,14.47
	c0,2.37,0.86,4.43,2.59,6.18c1.73,1.73,3.79,2.59,6.2,2.59c1.58,0,3.05-0.39,4.39-1.18s2.42-1.85,3.21-3.2s1.19-2.81,1.19-4.39
	s-0.4-3.05-1.19-4.4s-1.86-2.42-3.21-3.21s-2.81-1.18-4.39-1.18s-3.05,0.39-4.39,1.18S8.2,8.72,7.4,10.07S6.22,12.89,6.22,14.47z
	 M11.89,18.71c-0.06-0.22-0.04-0.44,0.08-0.65l2.17-3.84V7.81c0-0.23,0.08-0.43,0.24-0.59s0.36-0.24,0.59-0.24s0.43,0.08,0.59,0.24
	s0.24,0.36,0.24,0.59v6.67c0,0.2-0.06,0.37-0.19,0.53l-2.18,3.9c-0.16,0.27-0.41,0.41-0.75,0.41c-0.16,0-0.29-0.03-0.4-0.09
	C12.09,19.1,11.96,18.93,11.89,18.71z"/>
</svg>
